X: 33476
T: Raft Race
R: reel
M: 4/4
K: Bminor
[M:3/2]
f2ed deBA ABdA|a2fe e2dB d2BA|G2de efed ABdA|
[1 G2de efed efge:|2 efed GAde d2fg||
gaa/a/a d2a/a/a faad|eaa/a/a c2a/a/a eaac|
daa/a/a B2a/a/a faaB|G2de efed efge|
gaa/a/ad2aa faad|eaa/a/a c2aa eaaf|
g2fd B2ga gdBd|efed GAde d2de:|

